svg/tray_minus.svg

<svg xmlns="http://www.w3.org/2000/svg" viewBox="0 0 24 24"><path d="M16 10H8V8h8M2 17a2 2 0 0 0 2 2h16a2 2 0 0 0 2-2v-5h-2v5H4v-5H2Z"/></svg>

<?xml version="1.0" encoding="UTF-8"?><!DOCTYPE svg PUBLIC "-//W3C//DTD SVG 1.1//EN" "http://www.w3.org/Graphics/SVG/1.1/DTD/svg11.dtd"><svg xmlns="http://www.w3.org/2000/svg" xmlns:xlink="http://www.w3.org/1999/xlink" version="1.1" id="mdi-tray-minus" width="24" height="24" viewBox="0 0 24 24"><path d="M16 10H8V8H16M2 17A2 2 0 0 0 4 19H20A2 2 0 0 0 22 17V12H20V17H4V12H2Z" /></svg>
